app/assets/images/lotus.svg

<svg width="204" height="213" viewBox="0 0 204 213" fill="none" xmlns="http://www.w3.org/2000/svg">
<path d="M120.859 29.4462C120.859 29.4462 120.285 49.9933 115.887 55.3741C111.488 60.7549 106.877 66.2589 102.419 66.2589" stroke="white" stroke-width="3" stroke-linecap="round"/>
<path d="M83.9795 29.4462C83.9795 29.4462 84.5531 49.9933 88.9519 55.3741C93.3506 60.7549 97.9612 66.2589 102.419 66.2589" stroke="white" stroke-width="3" stroke-linecap="round"/>
<path d="M111.639 13.5498C111.639 13.5498 105.055 22.9671 99.3638 24.6122C93.6725 26.2572 85.6558 28.6096 85.6558 28.6096" stroke="white" stroke-width="3" stroke-linecap="round"/>
<path d="M110.801 16.8964C110.801 16.8964 117.51 19.8562 120.021 26.9362" stroke="white" stroke-width="3" stroke-linecap="round"/>
<path d="M113.315 2.94507C113.315 2.94507 83.3068 -6.2163 78.9502 27.7729" stroke="white" stroke-width="3" stroke-linecap="round"/>
<path d="M123.067 29.4462C123.067 29.4462 127.628 31.7087 121.697 43.6693" stroke="white" stroke-width="3" stroke-linecap="round"/>
<path d="M80.3105 29.4467C80.3105 29.4467 75.9646 32.0974 82.9173 43.4965" stroke="white" stroke-width="3" stroke-linecap="round"/>
<path d="M115.83 3.51001C115.83 3.51001 127.121 14.6898 124.585 27.773" stroke="white" stroke-width="3" stroke-linecap="round"/>
<path d="M118.344 55.3824C118.344 55.3824 123.086 58.8856 124 64.4256C124.904 69.9014 122.737 73.2846 120.769 76.2988" stroke="white" stroke-width="3" stroke-linecap="round"/>
<path d="M115.422 61.3486C115.422 61.3486 120.083 67.0948 117.914 75.3525" stroke="white" stroke-width="3" stroke-linecap="round"/>
<path d="M92.3608 62.9124C92.3608 62.9124 94.0372 71.4422 92.3608 74.6255" stroke="white" stroke-width="3" stroke-linecap="round"/>
<path d="M111.639 62.9124C111.639 62.9124 109.963 71.4422 111.639 74.6255" stroke="white" stroke-width="3" stroke-linecap="round"/>
<path d="M92.3608 74.6255C92.3608 74.6255 77.7374 80.8944 67.8621 81.6301C57.9868 82.3659 56.3193 99.7251 56.3193 99.7251" stroke="white" stroke-width="3" stroke-linecap="round"/>
<path d="M111.639 74.6255C111.639 74.6255 126.263 80.8944 136.138 81.6301C146.013 82.3659 147.681 99.7251 147.681 99.7251" stroke="white" stroke-width="3" stroke-linecap="round"/>
<path d="M56.3196 99.7251C56.3196 99.7251 55.0089 117.31 54.2012 121.753C53.3936 126.196 26.3244 165.182 25.3071 166.657" stroke="white" stroke-width="3" stroke-linecap="round"/>
<path d="M69.7302 120.641C69.7302 120.641 69.5725 123.228 68.7749 127.7C67.9774 132.172 35.5314 169.356 34.5269 170.841" stroke="white" stroke-width="3" stroke-linecap="round"/>
<path d="M70.5684 120.641C70.5684 120.641 74.4216 143.087 74.7592 150.761" stroke="white" stroke-width="3" stroke-linecap="round"/>
<path d="M74.7593 150.761C74.7593 150.761 84.6776 154.108 101.581 154.108" stroke="white" stroke-width="3" stroke-linecap="round"/>
<path d="M74.7592 150.761C74.7592 150.761 74.3184 160.679 72.2446 164.984" stroke="white" stroke-width="3" stroke-linecap="round"/>
<path d="M87.332 77.1355C87.332 77.1355 90.145 101.398 101.581 101.398" stroke="white" stroke-width="3" stroke-linecap="round"/>
<path d="M116.668 77.1355C116.668 77.1355 113.855 101.398 102.419 101.398" stroke="white" stroke-width="3" stroke-linecap="round"/>
<path d="M81.4646 78.8087C81.4646 78.8087 79.8924 86.8315 76.0129 95.7655C72.1333 104.7 70.1348 117.439 70.6476 120.641" stroke="white" stroke-width="3" stroke-linecap="round"/>
<path d="M147.68 99.7251C147.68 99.7251 148.991 117.31 149.799 121.753C150.606 126.196 177.676 165.182 178.693 166.657" stroke="white" stroke-width="3" stroke-linecap="round"/>
<path d="M133.431 120.641C133.431 120.641 133.589 123.228 134.387 127.7C135.184 132.172 167.63 169.356 168.635 170.841" stroke="white" stroke-width="3" stroke-linecap="round"/>
<path d="M133.432 120.641C133.432 120.641 129.578 143.087 129.241 150.761" stroke="white" stroke-width="3" stroke-linecap="round"/>
<path d="M129.241 150.761C129.241 150.761 119.322 154.108 102.419 154.108" stroke="white" stroke-width="3" stroke-linecap="round"/>
<path d="M128.402 150.761C128.402 150.761 128.843 160.679 130.917 164.984" stroke="white" stroke-width="3" stroke-linecap="round"/>
<path d="M122.536 78.8087C122.536 78.8087 122.47 82.5164 127.943 95.7655C133.416 109.015 133.773 117.439 133.264 120.641" stroke="white" stroke-width="3" stroke-linecap="round"/>
<path d="M25.3072 167.494L16.1553 168.794C16.1553 168.794 12.7939 173.534 13.8076 174.187" stroke="white" stroke-width="3" stroke-linecap="round"/>
<path d="M35.3653 170.841L30.9394 179.317C30.9394 179.317 18.5184 187.522 17.044 187.572C15.5695 187.623 6.30758 186.41 7.88587 184.035C9.46416 181.66 16.317 175.096 16.317 175.096" stroke="white" stroke-width="3" stroke-linecap="round"/>
<path d="M179.531 167.494L188.683 168.794C188.683 168.794 192.044 173.534 191.031 174.187" stroke="white" stroke-width="3" stroke-linecap="round"/>
<path d="M169.473 170.841L173.899 179.317C173.899 179.317 186.32 187.522 187.794 187.572C189.269 187.623 198.531 186.41 196.953 184.035C195.374 181.66 188.521 175.096 188.521 175.096" stroke="white" stroke-width="3" stroke-linecap="round"/>
<path d="M72.245 165.821C72.245 165.821 36.8776 172.506 33.689 175.024" stroke="white" stroke-width="3" stroke-linecap="round"/>
<path d="M131.755 164.984C131.755 164.984 167.122 171.67 170.311 174.187" stroke="white" stroke-width="3" stroke-linecap="round"/>
<path d="M196.495 185.9C196.495 185.9 209.505 196.1 196.495 204.325C183.485 212.55 140.977 207.031 99.0664 201.175" stroke="white" stroke-width="3" stroke-linecap="round"/>
<path d="M7.50338 185.9C7.50338 185.9 -5.50357 196.003 7.50338 204.15C20.5103 212.298 64.7086 213 106.61 207.199" stroke="white" stroke-width="3" stroke-linecap="round"/>
<path d="M173.664 189.247C173.664 189.247 157.798 184.227 100.743 189.247" stroke="white" stroke-width="3" stroke-linecap="round"/>
<path d="M107.448 206.817L105.772 201.797" stroke="white" stroke-width="3" stroke-linecap="round"/>
<path d="M31.1743 190.723C31.1743 190.723 50.1401 187.446 98.2283 200.96" stroke="white" stroke-width="3" stroke-linecap="round"/>
<path d="M100.743 189.247C100.743 189.247 95.8368 192.144 94.8755 198.45" stroke="white" stroke-width="3" stroke-linecap="round"/>
<path d="M97.3898 190.56C97.3898 190.56 90.5347 188.298 88.1699 196.777" stroke="white" stroke-width="3" stroke-linecap="round"/>
<path d="M108.286 206.817C108.286 206.817 115.126 206.173 118.344 205.143" stroke="white" stroke-width="3" stroke-linecap="round"/>
</svg>

<svg width="204" height="213" fill="none" xmlns="http://www.w3.org/2000/svg"><path d="M120.859 29.446s-.574 20.547-4.972 25.928c-4.399 5.38-9.01 10.885-13.468 10.885M83.98 29.446s.573 20.547 4.972 25.928c4.399 5.38 9.01 10.885 13.467 10.885M111.639 13.55s-6.584 9.417-12.275 11.062c-5.692 1.645-13.708 3.998-13.708 3.998M110.801 16.896s6.709 2.96 9.22 10.04M113.315 2.945S83.307-6.216 78.95 27.773M123.067 29.446s4.561 2.263-1.37 14.223M80.31 29.447s-4.345 2.65 2.607 14.05M115.83 3.51s11.291 11.18 8.755 24.263M118.344 55.382s4.742 3.504 5.656 9.044c.904 5.475-1.263 8.859-3.231 11.873M115.422 61.349s4.661 5.746 2.492 14.004M92.36 62.912s1.677 8.53 0 11.714M111.639 62.912s-1.676 8.53 0 11.714M92.36 74.626s-14.623 6.268-24.498 7.004c-9.875.736-11.543 18.095-11.543 18.095M111.639 74.626s14.624 6.268 24.499 7.004c9.875.736 11.543 18.095 11.543 18.095M56.32 99.725s-1.311 17.585-2.119 22.028c-.807 4.443-27.877 43.429-28.894 44.904M69.73 120.641s-.157 2.587-.955 7.059c-.798 4.472-33.244 41.656-34.248 43.141M70.568 120.641s3.854 22.446 4.191 30.12M74.76 150.761s9.918 3.347 26.821 3.347M74.76 150.761s-.442 9.918-2.515 14.223M87.332 77.135s2.813 24.263 14.249 24.263M116.668 77.135s-2.813 24.263-14.249 24.263" stroke="#fff" stroke-width="3" stroke-linecap="round"/><path d="M81.465 78.809s-1.573 8.023-5.452 16.957c-3.88 8.934-5.878 21.673-5.365 24.875M147.68 99.725s1.311 17.585 2.119 22.028c.807 4.443 27.877 43.429 28.894 44.904M133.431 120.641s.158 2.587.956 7.059c.797 4.472 33.243 41.656 34.248 43.141M133.432 120.641s-3.854 22.446-4.191 30.12M129.241 150.761s-9.919 3.347-26.822 3.347M128.402 150.761s.441 9.918 2.515 14.223M122.536 78.809s-.066 3.707 5.407 16.957c5.473 13.249 5.83 21.673 5.321 24.875M25.307 167.494l-9.152 1.3s-3.361 4.74-2.347 5.393M35.365 170.841l-4.426 8.476s-12.42 8.205-13.895 8.255c-1.475.051-10.736-1.162-9.158-3.537 1.578-2.375 8.431-8.939 8.431-8.939M179.531 167.494l9.152 1.3s3.361 4.74 2.348 5.393M169.473 170.841l4.426 8.476s12.421 8.205 13.895 8.255c1.475.051 10.737-1.162 9.159-3.537-1.579-2.375-8.432-8.939-8.432-8.939M72.245 165.821s-35.367 6.685-38.556 9.203M131.755 164.984s35.367 6.686 38.556 9.203" stroke="#fff" stroke-width="3" stroke-linecap="round"/><path d="M196.495 185.9s13.01 10.2 0 18.425c-13.01 8.225-55.518 2.706-97.429-3.15M7.503 185.9s-13.007 10.103 0 18.25c13.007 8.148 57.206 8.85 99.107 3.049M173.664 189.247s-15.866-5.02-72.921 0M107.448 206.817l-1.676-5.02M31.174 190.723s18.966-3.277 67.054 10.237M100.743 189.247s-4.906 2.897-5.867 9.203M97.39 190.56s-6.855-2.262-9.22 6.217M108.286 206.817s6.84-.644 10.058-1.674" stroke="#fff" stroke-width="3" stroke-linecap="round"/></svg>
